images/code.svg

<svg viewBox="0 0 512 512" xmlns="http://www.w3.org/2000/svg" xmlns:xlink="http://www.w3.org/1999/xlink"><linearGradient id="a" gradientTransform="matrix(1 0 0 -1 0 -16402)" gradientUnits="userSpaceOnUse" x1="0" x2="512" y1="-16658" y2="-16658"><stop offset="0" stop-color="#31d8ff"/><stop offset="1" stop-color="#ff80ff"/></linearGradient><path d="m512 256c0 141.386719-114.613281 256-256 256s-256-114.613281-256-256 114.613281-256 256-256 256 114.613281 256 256zm0 0" fill="url(#a)"/><g fill="#fff"><path d="m256 455.972656c-11.054688 0-22.105469-2.84375-31.964844-8.527344l-117.980468-68.035156c-19.753907-11.390625-32.023438-32.628906-32.023438-55.429687v-135.960938c0-22.800781 12.269531-44.039062 32.023438-55.429687l117.980468-68.035156c19.71875-11.371094 44.210938-11.367188 63.929688 0l117.980468 68.035156c19.753907 11.390625 32.023438 32.628906 32.023438 55.429687v135.960938c0 22.800781-12.269531 44.039062-32.023438 55.429687l-117.980468 68.035156c-9.859375 5.683594-20.914063 8.527344-31.964844 8.527344zm0-369.957031c-5.871094 0-11.742188 1.507813-16.976562 4.527344l-117.984376 68.035156c-10.492187 6.050781-17.007812 17.328125-17.007812 29.441406v135.960938c0 12.109375 6.515625 23.390625 17.007812 29.441406l117.984376 68.03125c10.472656 6.039063 23.480468 6.039063 33.953124 0l117.984376-68.03125c10.492187-6.050781 17.007812-17.332031 17.007812-29.441406v-135.960938c0-12.109375-6.515625-23.390625-17.007812-29.441406l-117.984376-68.035156c-5.234374-3.019531-11.105468-4.527344-16.976562-4.527344zm0 0"/><path d="m172.753906 320.269531c-4.261718.003907-8.492187-1.800781-11.457031-5.308593-5.351563-6.324219-4.566406-15.789063 1.761719-21.140626l44.695312-37.820312-44.695312-37.820312c-6.324219-5.351563-7.113282-14.816407-1.761719-21.140626 5.347656-6.324218 14.8125-7.113281 21.136719-1.761718l58.230468 49.269531c3.367188 2.851563 5.3125 7.039063 5.3125 11.453125 0 4.410156-1.945312 8.601562-5.3125 11.449219l-58.230468 49.273437c-2.816406 2.382813-6.257813 3.546875-9.679688 3.546875zm0 0"/><path d="m339.253906 320.269531h-70.546875c-8.285156 0-15-6.714843-15-15 0-8.28125 6.714844-15 15-15h70.546875c8.285156 0 15 6.71875 15 15 0 8.285157-6.714844 15-15 15zm0 0"/></g></svg>

<svg width="512" height="512" viewBox="0 0 512 512" fill="none" xmlns="http://www.w3.org/2000/svg">
<path d="M256 455.973C244.945 455.973 233.895 453.129 224.035 447.445L106.055 379.41C86.3008 368.02 74.0312 346.781 74.0312 323.98V188.02C74.0312 165.219 86.3008 143.98 106.055 132.59L224.035 64.5547C243.754 53.1836 268.246 53.1875 287.965 64.5547L405.945 132.59C425.699 143.98 437.969 165.219 437.969 188.02V323.98C437.969 346.781 425.699 368.02 405.945 379.41L287.965 447.445C278.105 453.129 267.051 455.973 256 455.973V455.973ZM256 86.0156C250.129 86.0156 244.258 87.5234 239.023 90.543L121.039 158.578C110.547 164.629 104.031 175.906 104.031 188.02V323.98C104.031 336.09 110.547 347.371 121.039 353.422L239.023 421.453C249.496 427.492 262.504 427.492 272.977 421.453L390.961 353.422C401.453 347.371 407.969 336.09 407.969 323.98V188.02C407.969 175.91 401.453 164.629 390.961 158.578L272.977 90.543C267.742 87.5234 261.871 86.0156 256 86.0156V86.0156Z" fill="white"/>
<path d="M172.754 320.27C168.492 320.273 164.262 318.469 161.297 314.961C155.945 308.637 156.73 299.172 163.059 293.82L207.754 256L163.059 218.18C156.734 212.828 155.945 203.363 161.297 197.039C166.645 190.715 176.109 189.926 182.434 195.277L240.664 244.547C244.031 247.398 245.977 251.586 245.977 256C245.977 260.41 244.031 264.602 240.664 267.449L182.434 316.723C179.617 319.105 176.176 320.27 172.754 320.27Z" fill="white"/>
<path d="M339.254 320.27H268.707C260.422 320.27 253.707 313.555 253.707 305.27C253.707 296.988 260.422 290.27 268.707 290.27H339.254C347.539 290.27 354.254 296.988 354.254 305.27C354.254 313.555 347.539 320.27 339.254 320.27Z" fill="white"/>
</svg>
